exported-svg/arrow-right-circle.svg

<svg height="24" viewBox="0 0 24 24" width="24" xmlns="http://www.w3.org/2000/svg"><path d="m15.2928932 13h-6.7928932c-.27614237 0-.5-.2238576-.5-.5s.22385763-.5.5-.5h6.7928932l-3.1464466-3.14644661c-.1952621-.19526215-.1952621-.51184463 0-.70710678.1952622-.19526215.5118446-.19526215.7071068 0l4 3.99999999c.1952621.1952622.1952621.5118446 0 .7071068l-4 4c-.1952622.1952621-.5118446.1952621-.7071068 0-.1952621-.1952622-.1952621-.5118446 0-.7071068zm-2.7928932 10c-5.79898987 0-10.5-4.7010101-10.5-10.5 0-5.79898987 4.70101013-10.5 10.5-10.5 5.7989899 0 10.5 4.70101013 10.5 10.5 0 5.7989899-4.7010101 10.5-10.5 10.5zm0-1c5.2467051 0 9.5-4.2532949 9.5-9.5 0-5.24670512-4.2532949-9.5-9.5-9.5-5.24670512 0-9.5 4.25329488-9.5 9.5 0 5.2467051 4.25329488 9.5 9.5 9.5z"/></svg>

<?xml version="1.0" encoding="UTF-8"?>
<svg width="24px" height="24px" viewBox="0 0 24 24" version="1.1" xmlns="http://www.w3.org/2000/svg" xmlns:xlink="http://www.w3.org/1999/xlink">
    <!-- Generator: Sketch 55.2 (78181) - https://sketchapp.com -->
    <title>arrow-right-circle</title>
    <desc>Created with Sketch.</desc>
    <g id="arrow-right-circle" stroke="none" stroke-width="1" fill="none" fill-rule="evenodd">
        <path d="M15.2928932,13 L8.5,13 C8.22385763,13 8,12.7761424 8,12.5 C8,12.2238576 8.22385763,12 8.5,12 L15.2928932,12 L12.1464466,8.85355339 C11.9511845,8.65829124 11.9511845,8.34170876 12.1464466,8.14644661 C12.3417088,7.95118446 12.6582912,7.95118446 12.8535534,8.14644661 L16.8535534,12.1464466 C17.0488155,12.3417088 17.0488155,12.6582912 16.8535534,12.8535534 L12.8535534,16.8535534 C12.6582912,17.0488155 12.3417088,17.0488155 12.1464466,16.8535534 C11.9511845,16.6582912 11.9511845,16.3417088 12.1464466,16.1464466 L15.2928932,13 Z M12.5,23 C6.70101013,23 2,18.2989899 2,12.5 C2,6.70101013 6.70101013,2 12.5,2 C18.2989899,2 23,6.70101013 23,12.5 C23,18.2989899 18.2989899,23 12.5,23 Z M12.5,22 C17.7467051,22 22,17.7467051 22,12.5 C22,7.25329488 17.7467051,3 12.5,3 C7.25329488,3 3,7.25329488 3,12.5 C3,17.7467051 7.25329488,22 12.5,22 Z" id="Combined-Shape" fill="#000000" fill-rule="nonzero"></path>
    </g>
</svg>
